X:1
T:Hodie beata Virgo
T:William Byrd (c.1540-1623)
T:Hodie beata Virgo 
T:© Choral Public Domain Library 2010
T:© Choral Public Domain Library 2010
T:© Choral Public Domain Library 2010
T:© Choral Public Domain Library 2010
C:William Byrd (c.1540-1623)
Z:© Choral Public Domain Library 2010
%%score [ 1 2 3 4 ]
L:1/8
M:4/4
K:F
V:1 treble nm="Alto" snm="A."
V:2 treble-8 transpose=-12 nm="Tenor" snm="A./T."
V:3 treble-8 transpose=-12 nm="Tenor" snm="T."
V:4 bass nm="Bass" snm="B."
V:1
 [Cd]2 |[M:4/2] z16 | A6 G2 A2 B2 c4- | c4 =B4 c4 z2 c2 | B4 A4 G4 E4 | F4 A4 G2 F2 F4- | %6
w: ||Ho- * * * *|* di- e Be-|a- ta Vir- go|Ma- ri- * * *|
 F4 E4 F8- | F8 z8 | z4 z2 B2 A4 G4 | A6 F2 G4 F4- | F4 E4 F8 | z8 z4 c4- | c2 c2 G4 B8 | %13
w: * * a,|_|Be- a- ta|Vir- go Ma- ri-|* * a|pu-|* e- rum Je-|
 A8 z4 A4- | A2 A2 G4 c8 | A4 F8 G4 | A4 G2 F2 B8 | G8 z8 | z4 F8 G4 | A4 G2 F2 c6 A2 | =B4 c8 B4 | %21
w: sum, pu-|* e- rum Je-|sum præ- sen-|ta- vit in tem-|plo,|præ- sen-|ta- vit in tem- *||
 c8 z4 A4- | A4 B8 B4 | G8 z4 G4- | G4 c8 A4 | A4 z2 A2 B4 G4 | z2 F3 E D2 E2 C2 z4 | %27
w: plo, et|_ Si- me-|on, et|_ Si- me-|on, re- ple- tus|spi- ri- tu san- cto,|
 z4 c4 d4 =B4 | c3 B A4 B4 G4 | F6 ED E4 D4 | z4 c4 d4 =B4 | c3 B A8 G4- | G2 ^F2 A2 G2 F2 G4 F2 | %33
w: re- ple- tus|spi- ri- tu san- cto,|san- * * * cto,|re- ple- tus|spi- ri- tu san-||
 G8 G8 | A12 A4 | A8 A4 A4 | =B4 B4 c6 _B2 | A2 G2 A8 G2 F2 | E8 ^F8 | G8 E4 A4- | A4 G4 G6 E2 | %41
w: cto, ac-|ce- pit|e- um in|ul- nas su- *||as, et|be- ne- di-|* xit De- *|
 ^F4 G8 F4 | G8 A6 B2 | c2 A2 c8 B4 | A16 | z4 A8 d4- | d4 =B4 c8 | A4 B6 A2 F4 | G8 A6 G2 | %49
w: |um in æ-|ter- * * *|num,|et be-|* ne- di-|xit De- * *|um in æ-|
 A2 B2 c6 B2 A2 G2 | ^F4 G8 F4 | !fermata!G16 |] %52
w: ter- * * * * *||num.|
V:2
 [Fg]2 |[M:4/2] d6 c2 d2 e2 f4- | f4 e4 f4 z2 f2 | e4 d4 c4 A4 | d4 f6 e2 c2 e2 | %5
w: |Ho- * * * *|* di- e Be-|a- ta Vir- go|Ma- ri- * * *|
 d2 c2 A2 c2 B2 A2 F2 A2 | G8 F8- | F8 z4 z2 f2 | e4 d4 e6 c2 | f4 c8 d4 | c8 z4 A4 | %11
w: |* a,|_ Be-|a- ta Vir- go|Ma- ri- *|a, Ma-|
 c6 B2 A4 G2 F2 | G8 d6 d2 | d4 c4 f8 | e8 f4 c4 | z4 d8 e4 | f4 e2 d2 g6 f2 | d4 e4 f4 e2 d2 | %18
w: ri- * * * *|a pu- e-|rum Je- *|sum, Je- sum|præ- sen-|ta- vit in tem- *|* * plo, in _|
 c4 F4 z4 c4- | c4 d4 e4 d2 c2 | g6 e2 f3 e d2 f2 | e8 z4 f4- | f4 f8 f4 | e16 | z4 c8 f4- | %25
w: tem- plo, præ-|* sen- ta- vit in|tem- * * * * *|plo, et|_ Si- me-|on,|et Si-|
 f2 f2 c4 z8 | z8 z4 f4 | g4 e4 f3 e d4 | c6 BA G8 | z8 z4 f4 | g4 e4 f3 e d4 | e4 c4 d3 c B4 | %32
w: * me- on,|re-|ple- tus spi- ri- tu|san- * * cto,|re-|ple- tus spi- ri- tu|san- cto, spi- ri- tu|
 A16 | G8 z4 d4 | f4 c4 f8 | e4 e4 ^f4 f4 | g6 f2 e2 d2 e4- | e4 d2 ^c2 d8 | ^c8 d8 | e8 c4 f4- | %40
w: san-|cto, ac-|ce- pit e-|um in ul- nas|su- * * * *||as, et|be- ne- di-|
 f4 e4 e8 | d8 d8 | =B4 c8 A4 | f8 d4 g4- | g4 f4 e8 | ^f8 f8 | g12 c4 | f4 d4 f8 | e8 f6 e2 | %49
w: * xit De-|um in|æ- ter- num,|in æ- ter-||num, et|be- ne-|di- xit De-|um in æ-|
 d4 c4 z4 c4- | c4 B4 A8 | !fermata!G16 |] %52
w: ter- num, in|_ æ- ter-|num.|
V:3
 [Df]2 |[M:4/2] z16 | z16 | z16 | z16 | z16 | z16 | A6 G2 A2 B2 c4- | c4 =B4 c8 | z8 z4 B4 | %10
w: |||||||Ho- * * * *|* di- e|Be-|
 A4 G2 A4 F2 D4 | A4 G6 F2 F4- | F4 E4 F8 | z4 A6 A2 F4 | c8 F8 | f6 e2 d2 c2 B4 | c2 A4 B2 G8- | %17
w: a- ta Vir- go Ma-|ri- * * *|* * a|pu- e- rum|Je- sum,|Je- * * * sum,|Je- * * sum|
 G8 F6 G2 | A4 B2 c2 d4 G4 | z8 c4 f4- | f2 ed e2 c2 d8 | c8 z4 c4- | c4 d8 d4 | c16 | e8 f6 f2 | %25
w: _ præ- sen-|ta- vit in tem- plo,|in tem-||plo, et|_ Si- me-|on,|et Si- me-|
 F8 z4 c4 | d4 =B4 c3 _B A4 | B4 G4 F4 G4 | A8 z4 c4 | d4 =B4 c3 _B A2 B2- | B2 AG A4 D4 z4 | %31
w: on, re-|ple- tus spi- ri- tu|san- cto, san- *|cto, re-|ple- tus spi- ri- tu san-|* * * * cto,|
 c8 f3 e d4 | e4 c4 d8 | =B8 B8 | c8 A4 d4- | d4 ^c4 d8 | d4 G8 G4 | F6 E2 F4 D4 | A8 A8 | c12 A4 | %40
w: a spi- ri- tu|san- * *|cto, ac-|ce- pit e-|* * um|in ul- nas|su- * * *|as, et|be- ne-|
 c8 G4 c4- | c4 B4 A8 | G8 c6 B2 | A4 F4 z2 d4 e2 | ^c4 d8 c4 | d4 A4 d6 c2 | =B4 G4 c2 _B2 A2 G2 | %47
w: di- xit De-||um in æ-|ter- num, in æ-|ter- * *|num, et be- ne-|di- xit De- * * *|
 F16 | c6 B2 A4 F4 | f8 c8 | d16 | !fermata!=B16 |] %52
w: um|in æ- ter- num,|in æ-|ter-|num.|
V:4
 [G,,C]2 |[M:4/2] z16 | z16 | z16 | z16 | z16 | z8 D,6 C,2 | D,2 E,2 F,8 A,4 | G,8 z8 | %9
w: ||||||Ho- *|* * * di-|e|
 z4 F,4 E,4 D,4 | F,4 C,4 D,8 | C,16 | C,8 B,,6 B,,2 | D,4 F,6 E,2 D,4 | C,8 A,6 A,2 | %15
w: Be- a- ta|Vir- go Ma-|ri-|a pu- e-|rum Je- * *|sum, pu- e-|
 F,4 B,6 A,2 G,4 | F,8 z4 B,,4- | B,,4 C,4 D,4 C,2 B,,2 | F,6 E,2 D,4 E,4 | F,4 D,4 A,8 | G,16 | %21
w: rum Je- * *|sum præ-|* sen- ta- vit in|tem- * * *|plo, in tem-|plo,|
 z4 C,8 F,4- | F,4 D,4 B,,8 | z4 C,8 C4- | C4 A,4 F,8 | z4 F,4 G,4 E,4 | F,3 E, D,4 C,4 D,4 | %27
w: et Si-|* me- on,|et Si-|* me- on,|re- ple- tus|spi- ri- tu san- *|
 B,,4 C,4 z8 | z4 F,4 G,4 E,4 | F,3 E, D,4 C,4 D,4 | z8 F,4 G,4 | E,4 F,6 F,2 G,4 | %32
w: * cto,|re- ple- tus|spi- ri- tu san- cto,|re- ple-|tus spi- ri- tu|
 C,2 D,E, F,2 E,2 D,8 | G,,8 G,8 | F,12 D,4 | A,8 D,4 D,4 | G,8 C,8 | D,16 | A,,8 D,8 | C,12 C,4 | %40
w: san- * * * * *|cto, ac-|ce- pit|e- um in|ul- nas|su-|as, et|be- ne-|
 C,8 C,8 | D,16 | E,8 F,8- | F,8 G,8 | A,16 | D,8 D,8 | G,8 E,4 F,4- | F,4 B,,4 D,8 | C,8 F,8- | %49
w: di- xit|De-|um in|_ æ-|ter-|num, et|be- ne- di-|* xit De-|um in|
 F,8 E,8 | D,16 | !fermata!G,,16 |] %52
w: _ æ-|ter-|num.|

